X: 21023
T: MISS JESSIE SMITH'S STRATHSPEY
R: C|
B: K\"ohler's Violin Repository, v.2, 1885 p.102 #3
F: http://www.archive.org/details/klersviolinrepos02rugg
Z: 2012 John Chambers <jc:trillian.mit.edu>
M: C|
L: 1/8
K: D
uB |\
A<F(F>E) (D>A) G/F/E/D/ | A<F(F>A) [B2G2]B<d |\
A<F(F>E) (D>A) G/F/E/D/ | (G>B) (F>A) [E3A,3] :|
uA |\
d2(f>d) [BG]>e d/c/B/A/ | d<d(f>d) [B2G2]B>c |\
d2(f>d) [BG]>e d/c/B/A/ | (d>B)(A>F) E2(E>c) |
d2(f>d) [BG]>e d/c/B/A/ | (d>e)(f>d) B2(B>g) |\
(3fed (3cde (3dcB (3ABc | (3dcB (3AGF "^Segue Reel."[E3A,3] "_D.C." |]

%%sep 2 1 500

